X:1
T:Riley's Trial
M:6/8
L:1/4
K:F
 A/2| G E/2 C C/2| F- G/2 A A/2| G F/2 C C/2| C3/2 z C/2| F- A/2 c c/2|\
 c3/2 c d/2| c d/2 A G/2| A3/2 z C/2| F G/2 A B/2| c/2 c3/2 z/2 d/2|\
 c d/2 A G/2| A3/2 z A/4A/4| G F/2 C C/2| F- G/2 A A/2| G- F/2 C C/2|\
 C2 z/2||
